assets/icons/24px/stroke/cloud-24px.svg

<svg width="24" height="24" viewBox="0 0 24 24" fill="none" xmlns="http://www.w3.org/2000/svg">
<path fill-rule="evenodd" clip-rule="evenodd" d="M8.12914 6.7796C9.29732 5.74051 10.9936 5 12.9 5C14.7929 5 16.6419 5.73394 17.8643 7.02745C18.8864 8.10902 19.4437 9.5617 19.2216 11.19C20.8333 11.7063 22 13.2169 22 15C22 17.2091 20.2091 19 18 19H6.75C4.12665 19 2 16.8734 2 14.25C2 11.7135 3.98819 9.64133 6.49119 9.50693C6.66272 8.47119 7.31536 7.50344 8.12914 6.7796ZM8.47026 9.82112C9.64982 10.2797 10.6002 11.1958 11.1043 12.3496C11.3254 12.8557 11.0944 13.4452 10.5883 13.6664C10.0823 13.8875 9.49273 13.6565 9.27162 13.1504C8.84635 12.177 7.87612 11.5 6.75 11.5C5.23122 11.5 4 12.7312 4 14.25C4 15.7688 5.23122 17 6.75 17H18C19.1046 17 20 16.1046 20 15C20 13.8954 19.1046 13 18 13C17.4028 13 16.8677 13.2605 16.4997 13.6774C16.1343 14.0914 15.5023 14.1308 15.0883 13.7654C14.6742 13.3999 14.6348 12.768 15.0003 12.3539C15.5672 11.7116 16.3395 11.2516 17.2146 11.0772C17.4119 9.99799 17.064 9.09245 16.4107 8.40112C15.6081 7.55178 14.3071 7 12.9 7C11.5064 7 10.2777 7.5452 9.45836 8.27397C8.83957 8.82438 8.54626 9.38178 8.47026 9.82112Z" fill="white"/>
</svg>

<svg width="24" height="24" fill="none" xmlns="http://www.w3.org/2000/svg"><path fill-rule="evenodd" clip-rule="evenodd" d="M8.13 6.78C9.296 5.74 10.993 5 12.9 5c1.893 0 3.742.734 4.964 2.027 1.022 1.082 1.58 2.535 1.358 4.163A4.002 4.002 0 0 1 18 19H6.75a4.75 4.75 0 0 1-.259-9.493c.172-1.036.824-2.004 1.638-2.727zm.34 3.041a4.766 4.766 0 0 1 2.634 2.529 1 1 0 0 1-1.832.8A2.75 2.75 0 1 0 6.75 17H18a2 2 0 1 0-1.5-3.323 1 1 0 0 1-1.5-1.323 3.998 3.998 0 0 1 2.215-1.277c.197-1.079-.151-1.985-.804-2.676C15.608 7.551 14.307 7 12.9 7c-1.394 0-2.622.545-3.442 1.274-.618.55-.912 1.108-.988 1.547z" fill="#fff"/></svg>
